static/cards/FrenchDeck/default/card_diamonds_08.svg

<svg width="219" height="304" viewBox="0 0 219 304" fill="none" xmlns="http://www.w3.org/2000/svg">
<g filter="url(#filter0_d_18_666)">
<g clip-path="url(#clip0_18_666)">
<rect x="8" y="4" width="203" height="288" rx="10" fill="white"/>
<path d="M24.9199 44.5806C19.2744 44.5806 15.3506 41.2974 15.3506 36.5728C15.3506 33.2695 17.5728 30.4868 20.876 29.686V29.4858C18.1934 28.605 16.4316 26.1826 16.4316 23.3999C16.4316 19.1958 20.0352 16.0928 25 16.0928C29.9648 16.0928 33.5884 19.1958 33.5884 23.3999C33.5884 26.1426 31.7666 28.605 29.124 29.4858V29.686C32.3872 30.4668 34.6294 33.2695 34.6294 36.5327C34.6294 41.2373 30.5854 44.5806 24.9199 44.5806ZM25 28.3047C28.043 28.3047 30.1851 26.3628 30.1851 23.6401C30.1851 20.9375 28.063 19.0557 25 19.0557C21.957 19.0557 19.8149 20.9575 19.8149 23.6401C19.8149 26.3428 21.9771 28.3047 25 28.3047ZM25 41.6577C28.6235 41.6577 31.2261 39.4756 31.2261 36.4326C31.2261 33.3896 28.6235 31.1675 25 31.1675C21.3765 31.1675 18.7739 33.3696 18.7739 36.4326C18.7739 39.4756 21.3765 41.6577 25 41.6577Z" fill="#BC1E24"/>
<path d="M26.1801 52.104C26.1038 51.9653 25.8962 51.9653 25.8199 52.104C23.5263 56.2724 21.8722 58.4782 18.5553 61.8648C18.4816 61.9401 18.4816 62.0599 18.5553 62.1352C21.8722 65.5218 23.5263 67.7276 25.8199 71.896C25.8962 72.0347 26.1038 72.0347 26.1801 71.896C28.4737 67.7276 30.1278 65.5218 33.4447 62.1352C33.5184 62.0599 33.5184 61.9401 33.4447 61.8648C30.1278 58.4782 28.4737 56.2724 26.1801 52.104Z" fill="#BC1E24"/>
<path d="M194.08 251.419C199.726 251.419 203.649 254.703 203.649 259.427C203.649 262.73 201.427 265.513 198.124 266.314L198.124 266.514C200.807 267.395 202.568 269.817 202.568 272.6C202.568 276.804 198.965 279.907 194 279.907C189.035 279.907 185.412 276.804 185.412 272.6C185.412 269.857 187.233 267.395 189.876 266.514L189.876 266.314C186.613 265.533 184.371 262.73 184.371 259.467C184.371 254.763 188.415 251.419 194.08 251.419ZM194 267.695C190.957 267.695 188.815 269.637 188.815 272.36C188.815 275.062 190.937 276.944 194 276.944C197.043 276.944 199.185 275.042 199.185 272.36C199.185 269.657 197.023 267.695 194 267.695ZM194 254.342C190.376 254.342 187.774 256.524 187.774 259.567C187.774 262.61 190.376 264.833 194 264.833C197.624 264.833 200.226 262.63 200.226 259.567C200.226 256.524 197.624 254.342 194 254.342Z" fill="#BC1E24"/>
<path d="M192.82 243.896C192.896 244.035 193.104 244.035 193.18 243.896C195.474 239.728 197.128 237.522 200.445 234.135C200.518 234.06 200.518 233.94 200.445 233.865C197.128 230.478 195.474 228.272 193.18 224.104C193.104 223.965 192.896 223.965 192.82 224.104C190.526 228.272 188.872 230.478 185.555 233.865C185.482 233.94 185.482 234.06 185.555 234.135C188.872 237.522 190.526 239.728 192.82 243.896Z" fill="#BC1E24"/>
<path d="M65.9501 27.2599C65.7594 26.9134 65.2406 26.9134 65.0499 27.2599C59.3158 37.6809 55.1805 43.1955 46.8882 51.6621C46.7039 51.8503 46.7039 52.1498 46.8882 52.338C55.1805 60.8045 59.3158 66.3191 65.0499 76.7401C65.2406 77.0866 65.7594 77.0866 65.9501 76.7401C71.6842 66.3191 75.8195 60.8045 84.1118 52.338C84.2961 52.1498 84.2961 51.8503 84.1118 51.6621C75.8195 43.1955 71.6842 37.6809 65.9501 27.2599Z" fill="#BC1E24"/>
<path d="M65.9501 219.26C65.7594 218.913 65.2406 218.913 65.0499 219.26C59.3158 229.681 55.1805 235.196 46.8882 243.662C46.7039 243.85 46.7039 244.15 46.8882 244.338C55.1805 252.804 59.3158 258.319 65.0499 268.74C65.2406 269.087 65.7594 269.087 65.9501 268.74C71.6842 258.319 75.8195 252.804 84.1118 244.338C84.2961 244.15 84.2961 243.85 84.1118 243.662C75.8195 235.196 71.6842 229.681 65.9501 219.26Z" fill="#BC1E24"/>
<path d="M153.95 27.2599C153.759 26.9134 153.241 26.9134 153.05 27.2599C147.316 37.6809 143.181 43.1955 134.888 51.6621C134.704 51.8503 134.704 52.1498 134.888 52.338C143.181 60.8045 147.316 66.3191 153.05 76.7401C153.241 77.0866 153.759 77.0866 153.95 76.7401C159.684 66.3191 163.819 60.8045 172.112 52.338C172.296 52.1498 172.296 51.8503 172.112 51.6621C163.819 43.1955 159.684 37.6809 153.95 27.2599Z" fill="#BC1E24"/>
<path d="M65.9501 123.26C65.7594 122.913 65.2406 122.913 65.0499 123.26C59.3158 133.681 55.1805 139.196 46.8882 147.662C46.7039 147.85 46.7039 148.15 46.8882 148.338C55.1805 156.804 59.3158 162.319 65.0499 172.74C65.2406 173.087 65.7594 173.087 65.9501 172.74C71.6842 162.319 75.8195 156.804 84.1118 148.338C84.2961 148.15 84.2961 147.85 84.1118 147.662C75.8195 139.196 71.6842 133.681 65.9501 123.26Z" fill="#BC1E24"/>
<path d="M109.95 75.2599C109.759 74.9134 109.241 74.9134 109.05 75.2599C103.316 85.6809 99.1805 91.1955 90.8882 99.6621C90.7039 99.8503 90.7039 100.15 90.8882 100.338C99.1805 108.804 103.316 114.319 109.05 124.74C109.241 125.087 109.759 125.087 109.95 124.74C115.684 114.319 119.819 108.804 128.112 100.338C128.296 100.15 128.296 99.8503 128.112 99.6621C119.819 91.1955 115.684 85.6809 109.95 75.2599Z" fill="#BC1E24"/>
<path d="M109.95 171.26C109.759 170.913 109.241 170.913 109.05 171.26C103.316 181.681 99.1805 187.196 90.8882 195.662C90.7039 195.85 90.7039 196.15 90.8882 196.338C99.1805 204.804 103.316 210.319 109.05 220.74C109.241 221.087 109.759 221.087 109.95 220.74C115.684 210.319 119.819 204.804 128.112 196.338C128.296 196.15 128.296 195.85 128.112 195.662C119.819 187.196 115.684 181.681 109.95 171.26Z" fill="#BC1E24"/>
<path d="M153.95 123.26C153.759 122.913 153.241 122.913 153.05 123.26C147.316 133.681 143.181 139.196 134.888 147.662C134.704 147.85 134.704 148.15 134.888 148.338C143.181 156.804 147.316 162.319 153.05 172.74C153.241 173.087 153.759 173.087 153.95 172.74C159.684 162.319 163.819 156.804 172.112 148.338C172.296 148.15 172.296 147.85 172.112 147.662C163.819 139.196 159.684 133.681 153.95 123.26Z" fill="#BC1E24"/>
<path d="M153.95 219.26C153.759 218.913 153.241 218.913 153.05 219.26C147.316 229.681 143.181 235.196 134.888 243.662C134.704 243.85 134.704 244.15 134.888 244.338C143.181 252.804 147.316 258.319 153.05 268.74C153.241 269.087 153.759 269.087 153.95 268.74C159.684 258.319 163.819 252.804 172.112 244.338C172.296 244.15 172.296 243.85 172.112 243.662C163.819 235.196 159.684 229.681 153.95 219.26Z" fill="#BC1E24"/>
</g>
</g>
<defs>
<filter id="filter0_d_18_666" x="0" y="0" width="219" height="304" filterUnits="userSpaceOnUse" color-interpolation-filters="sRGB">
<feFlood flood-opacity="0" result="BackgroundImageFix"/>
<feColorMatrix in="SourceAlpha" type="matrix" values="0 0 0 0 0 0 0 0 0 0 0 0 0 0 0 0 0 0 127 0" result="hardAlpha"/>
<feOffset dy="4"/>
<feGaussianBlur stdDeviation="4"/>
<feComposite in2="hardAlpha" operator="out"/>
<feColorMatrix type="matrix" values="0 0 0 0 0.614771 0 0 0 0 0.70094 0 0 0 0 0.806257 0 0 0 1 0"/>
<feBlend mode="normal" in2="BackgroundImageFix" result="effect1_dropShadow_18_666"/>
<feBlend mode="normal" in="SourceGraphic" in2="effect1_dropShadow_18_666" result="shape"/>
</filter>
<clipPath id="clip0_18_666">
<rect x="8" y="4" width="203" height="288" rx="10" fill="white"/>
</clipPath>
</defs>
</svg>

<svg xmlns="http://www.w3.org/2000/svg" width="219" height="304" fill="none" viewBox="0 0 219 304"><g filter="url(#a)"><g clip-path="url(#b)"><rect width="203" height="288" x="8" y="4" fill="#fff" rx="10"/><path fill="#bc1e24" d="M24.92 44.58c-5.646 0-9.57-3.283-9.57-8.007 0-3.303 2.223-6.086 5.526-6.887v-.2c-2.683-.881-4.444-3.303-4.444-6.086 0-4.204 3.603-7.307 8.568-7.307s8.588 3.103 8.588 7.307c0 2.743-1.821 5.205-4.464 6.086v.2c3.263.78 5.505 3.584 5.505 6.847 0 4.704-4.044 8.048-9.71 8.048M25 28.306c3.043 0 5.185-1.942 5.185-4.665 0-2.703-2.122-4.584-5.185-4.584-3.043 0-5.185 1.901-5.185 4.584 0 2.703 2.162 4.665 5.185 4.665m0 13.353c3.624 0 6.226-2.182 6.226-5.225S28.624 31.168 25 31.168s-6.226 2.202-6.226 5.265c0 3.043 2.602 5.225 6.226 5.225M26.18 52.104a.208.208 0 0 0-.36 0c-2.294 4.168-3.948 6.374-7.265 9.76a.193.193 0 0 0 0 .271c3.317 3.387 4.971 5.593 7.265 9.761a.208.208 0 0 0 .36 0c2.294-4.168 3.948-6.374 7.265-9.76a.193.193 0 0 0 0-.271c-3.317-3.387-4.971-5.593-7.265-9.761M194.08 251.419c5.646 0 9.569 3.284 9.569 8.008 0 3.303-2.222 6.086-5.525 6.887v.2c2.683.881 4.444 3.303 4.444 6.086 0 4.204-3.603 7.307-8.568 7.307s-8.588-3.103-8.588-7.307c0-2.743 1.821-5.205 4.464-6.086v-.2c-3.263-.781-5.505-3.584-5.505-6.847 0-4.704 4.044-8.048 9.709-8.048m-.08 16.276c-3.043 0-5.185 1.942-5.185 4.665 0 2.702 2.122 4.584 5.185 4.584 3.043 0 5.185-1.902 5.185-4.584 0-2.703-2.162-4.665-5.185-4.665m0-13.353c-3.624 0-6.226 2.182-6.226 5.225s2.602 5.266 6.226 5.266 6.226-2.203 6.226-5.266c0-3.043-2.602-5.225-6.226-5.225M192.82 243.896a.208.208 0 0 0 .36 0c2.294-4.168 3.948-6.374 7.265-9.761a.194.194 0 0 0 0-.27c-3.317-3.387-4.971-5.593-7.265-9.761a.208.208 0 0 0-.36 0c-2.294 4.168-3.948 6.374-7.265 9.761a.194.194 0 0 0 0 .27c3.317 3.387 4.971 5.593 7.265 9.761M65.95 27.26a.52.52 0 0 0-.9 0c-5.734 10.42-9.87 15.936-18.162 24.402a.48.48 0 0 0 0 .676c8.293 8.466 12.428 13.981 18.162 24.402a.52.52 0 0 0 .9 0c5.734-10.42 9.87-15.935 18.162-24.402a.48.48 0 0 0 0-.676C75.82 43.196 71.684 37.681 65.95 27.26M65.95 219.26a.52.52 0 0 0-.9 0c-5.734 10.421-9.87 15.936-18.162 24.402a.48.48 0 0 0 0 .676c8.293 8.466 12.428 13.981 18.162 24.402a.52.52 0 0 0 .9 0c5.734-10.421 9.87-15.936 18.162-24.402a.48.48 0 0 0 0-.676c-8.292-8.466-12.428-13.981-18.162-24.402M153.95 27.26a.52.52 0 0 0-.9 0c-5.734 10.42-9.869 15.936-18.162 24.402a.483.483 0 0 0 0 .676c8.293 8.466 12.428 13.981 18.162 24.402a.52.52 0 0 0 .9 0c5.734-10.42 9.869-15.935 18.162-24.402a.483.483 0 0 0 0-.676c-8.293-8.466-12.428-13.981-18.162-24.402M65.95 123.26a.52.52 0 0 0-.9 0c-5.734 10.421-9.87 15.936-18.162 24.402a.48.48 0 0 0 0 .676c8.293 8.466 12.428 13.981 18.162 24.402a.52.52 0 0 0 .9 0c5.734-10.421 9.87-15.936 18.162-24.402a.48.48 0 0 0 0-.676c-8.292-8.466-12.428-13.981-18.162-24.402M109.95 75.26a.52.52 0 0 0-.9 0c-5.734 10.42-9.87 15.935-18.162 24.402a.48.48 0 0 0 0 .676c8.292 8.466 12.428 13.981 18.162 24.402a.52.52 0 0 0 .9 0c5.734-10.421 9.869-15.936 18.162-24.402a.483.483 0 0 0 0-.676c-8.293-8.467-12.428-13.981-18.162-24.402M109.95 171.26a.52.52 0 0 0-.9 0c-5.734 10.421-9.87 15.936-18.162 24.402a.48.48 0 0 0 0 .676c8.292 8.466 12.428 13.981 18.162 24.402a.52.52 0 0 0 .9 0c5.734-10.421 9.869-15.936 18.162-24.402a.483.483 0 0 0 0-.676c-8.293-8.466-12.428-13.981-18.162-24.402M153.95 123.26a.52.52 0 0 0-.9 0c-5.734 10.421-9.869 15.936-18.162 24.402a.483.483 0 0 0 0 .676c8.293 8.466 12.428 13.981 18.162 24.402a.52.52 0 0 0 .9 0c5.734-10.421 9.869-15.936 18.162-24.402a.483.483 0 0 0 0-.676c-8.293-8.466-12.428-13.981-18.162-24.402M153.95 219.26a.52.52 0 0 0-.9 0c-5.734 10.421-9.869 15.936-18.162 24.402a.483.483 0 0 0 0 .676c8.293 8.466 12.428 13.981 18.162 24.402a.52.52 0 0 0 .9 0c5.734-10.421 9.869-15.936 18.162-24.402a.483.483 0 0 0 0-.676c-8.293-8.466-12.428-13.981-18.162-24.402"/></g></g><defs><clipPath id="b"><rect width="203" height="288" x="8" y="4" fill="#fff" rx="10"/></clipPath><filter id="a" width="219" height="304" x="0" y="0" color-interpolation-filters="sRGB" filterUnits="userSpaceOnUse"><feFlood flood-opacity="0" result="BackgroundImageFix"/><feColorMatrix in="SourceAlpha" result="hardAlpha" values="0 0 0 0 0 0 0 0 0 0 0 0 0 0 0 0 0 0 127 0"/><feOffset dy="4"/><feGaussianBlur stdDeviation="4"/><feComposite in2="hardAlpha" operator="out"/><feColorMatrix values="0 0 0 0 0.614771 0 0 0 0 0.70094 0 0 0 0 0.806257 0 0 0 1 0"/><feBlend in2="BackgroundImageFix" result="effect1_dropShadow_18_666"/><feBlend in="SourceGraphic" in2="effect1_dropShadow_18_666" result="shape"/></filter></defs></svg>
